images/roofs-type/moderate.svg

<svg width="120" height="120" viewBox="0 0 120 120" fill="none" xmlns="http://www.w3.org/2000/svg">
<path d="M60.4899 58.78V47.52L94.9299 53.16V65.8L60.4899 58.78Z" fill="#EEEEEE"/>
<path d="M94.4299 60.35L60.4899 53.76L40.3199 59.23L12.6899 54.04L5.66992 63.35L7.56992 66.9L41.1699 74.06L59.9999 68.11L89.8099 74.48L94.9299 65.39L94.4299 60.35Z" fill="#BBCAE8"/>
<path d="M60.95 92.31V71.04L92.16 77.68V99.32L60.95 92.31Z" fill="#EEEEEE"/>
<path fill-rule="evenodd" clip-rule="evenodd" d="M58.6799 53.76L59.9999 65.38L88.1199 71.09L94.4299 60.35L58.6799 53.76Z" stroke="#1B4EB2" stroke-width="1.5" stroke-linecap="round" stroke-linejoin="round"/>
<path d="M14.12 53.02V47.38L24.74 36.79L37.73 52V58.16L14.12 53.02Z" fill="#EEEEEE"/>
<path d="M55.08 20.06L24.9 26.61L11.95 40.43L13.6 42.6L24.72 31.49L39.84 48.64L58.2 44.33L96.93 50.41L107 32.09L113.47 42.12L114.93 39.51L107 25.68L55.08 20.06Z" fill="#BBCAE8"/>
<path d="M58.2 40.94L41.8 44.77L24.9 26.14L55.08 19.59L107 25.21M58.2 40.94L95.18 46.47L107 25.21M58.2 40.94L55.07 20.06M107 25.21L115.73 39.34M24.58 26.32L11 39.91" stroke="#1B4EB2" stroke-width="1.5" stroke-linecap="round" stroke-linejoin="round"/>
<path d="M10.0699 92.68V70.13L39.7999 77.04V101.1L10.0699 92.68Z" fill="#EEEEEE"/>
<path fill-rule="evenodd" clip-rule="evenodd" d="M40.32 59.23L41.82 71.17L4.82996 63.15L12.41 53.53L40.32 59.23Z" stroke="#1B4EB2" stroke-width="1.5" stroke-linecap="round" stroke-linejoin="round"/>
<path fill-rule="evenodd" clip-rule="evenodd" d="M41.8199 71.17L59.9999 65.38L58.6799 53.76L40.3199 59.23L41.8199 71.17Z" stroke="#1B4EB2" stroke-width="1.5" stroke-linecap="round" stroke-linejoin="round"/>
</svg>

<svg height="120" width="120" xmlns="http://www.w3.org/2000/svg"><g fill="none" fill-rule="evenodd"><g fill-rule="nonzero"><path d="m60.49 58.78v-11.26l34.44 5.64v12.64z" fill="#f2f2f2"/><path d="m94.43 60.35-33.94-6.59-20.17 5.47-27.63-5.19-7.02 9.31 1.9 3.55 33.6 7.16 18.83-5.95 29.81 6.37 5.12-9.09z" fill="#c5e2e6"/><path d="m60.95 92.31v-21.27l31.21 6.64v21.64z" fill="#f2f2f2"/></g><path d="m58.68 53.76 1.32 11.62 28.12 5.71 6.31-10.74z" stroke="#6eb7c2" stroke-linecap="round" stroke-linejoin="round" stroke-width="1.5"/><path d="m14.12 53.02v-5.64l10.62-10.59 12.99 15.21v6.16z" fill="#f2f2f2" fill-rule="nonzero"/><path d="m55.08 20.06-30.18 6.55-12.95 13.82 1.65 2.17 11.12-11.11 15.12 17.15 18.36-4.31 38.73 6.08 10.07-18.32 6.47 10.03 1.46-2.61-7.93-13.83z" fill="#c5e2e6" fill-rule="nonzero"/><path d="m55.08 19.59-30.18 6.55 16.9 18.63 16.4-3.83 36.98 5.53 11.82-21.26zm-30.5 6.73-13.58 13.59m44.07-19.85 3.13 20.88m48.8-15.73 8.73 14.13" stroke="#6eb7c2" stroke-linecap="round" stroke-linejoin="round" stroke-width="1.5"/><path d="m10.07 92.68v-22.55l29.73 6.91v24.06z" fill="#f2f2f2" fill-rule="nonzero"/><g stroke="#6eb7c2" stroke-linecap="round" stroke-linejoin="round" stroke-width="1.5"><path d="m40.32 59.23 1.5 11.94-36.99-8.02 7.58-9.62z"/><path d="m41.82 71.17 18.18-5.79-1.32-11.62-18.36 5.47z"/></g></g></svg>
